X:1
T:Title
L:1/8
Q:1/4=80
M:6/8
K:C
V:1 treble nm="Church Organ, Staff"
V:1
 GGA BcB | A G2 E G2 | GGA BcB | A G2 E G2 | ABA G A2 | B G2- G G2 | GGA _BBA | G A2 G F2 | %8
w: By~W.~H.~Gill * * * * *||||||||
 AAB cdc | B B2 A G2 | G G2 G A2 | A B2- B/ z/ G2- | G c2- ccB | A B2- B/ z/ G2- | G c2- ccB | %15
w: |||||||
 A d2- d/ z/ _e2- | e =e2- e d2- | dcc- c3/2 z/ d/e/- | e/f/ e2- e3- | e d2- d d2 | c c2- c c2 |] %21
w: ||||||

